svgs/sharp-regular/microwave.svg

<svg xmlns="http://www.w3.org/2000/svg" viewBox="0 0 576 512"><!--! Font Awesome Pro 6.6.0 by @fontawesome - https://fontawesome.com License - https://fontawesome.com/license (Commercial License) Copyright 2024 Fonticons, Inc. --><path d="M528 80l0 320L48 400 48 80l480 0zM48 32L0 32 0 80 0 400l0 48 48 0 16 0 0 32 48 0 0-32 352 0 0 32 48 0 0-32 16 0 48 0 0-48 0-320 0-48-48 0L48 32zm384 80l0 256 48 0 0-256-48 0zm-48 16L96 128l0 224 288 0 0-224z"/></svg>

<svg xmlns="http://www.w3.org/2000/svg" viewBox="0 0 576 512"><!--! Font Awesome Pro 6.4.2 by @fontawesome - https://fontawesome.com License - https://fontawesome.com/license (Commercial License) Copyright 2023 Fonticons, Inc. --><path d="M528 80V400H48V80H528zM48 32H0V80 400v48H48 64v32h48V448H464v32h48V448h16 48V400 80 32H528 48zm384 80V368h48V112H432zm-48 16H96V352H384V128z"/></svg>
